build/img/icon-close.svg

<svg width="23" height="23" fill="none" xmlns="http://www.w3.org/2000/svg"><path d="M22.2 2.8L19.4 0l-8.3 8.3L2.8 0 0 2.8l8.3 8.3L0 19.4l2.8 2.8 8.3-8.3 8.3 8.3 2.8-2.8-8.3-8.3 8.3-8.3z" fill="#fff"/></svg>

<svg width="23" height="23" viewBox="0 0 23 23" fill="none" xmlns="http://www.w3.org/2000/svg">
<path d="M22.2 2.8L19.4 0L11.1 8.3L2.8 0L0 2.8L8.3 11.1L0 19.4L2.8 22.2L11.1 13.9L19.4 22.2L22.2 19.4L13.9 11.1L22.2 2.8Z" fill="white"/>
</svg>
